X: 1
T: the Melodeon
C: Jimmy Blair
R: jig
Z: 2010 John Chambers <jc:trillian.mit.edu>
M: 6/8
L: 1/8
K: G
zD \
| "G"GBG DB,D | "G"G2G G2F | "C"EFG "Am"ABc \
| "G"dcB "D7"AFD | "G"GBG DB,D | "G"G2G G2G |
|1 "D7"ABc AFD | "F"G3 G :|2 "Am"ABc "D7"def | "G"g3 g \
|: Bc | "G"dgd Bcd | "Am"e2c "D7"A2B | "Am"cec ABc |
| "G"d2B G2A | "G"BdB GAB | "C"c2B "D7"A2A \
|1 "A7"A^ce gec | "D"d3 d :|2 "D7"FGA DEF | "G"G3 G |]

